mobile/24/svg/logo-safari-24.svg

<svg width="24" height="24" fill="none" xmlns="http://www.w3.org/2000/svg"><path fill-rule="evenodd" clip-rule="evenodd" d="m8.101 16.703 5.346-2.617c.298-.139.503-.354.651-.642l2.599-5.337c.298-.633-.158-1.118-.81-.801L10.56 9.904c-.289.14-.485.335-.643.652L7.3 15.902c-.298.615.186 1.099.801.801zm3.894-3.453a1.245 1.245 0 0 1-1.245-1.255c0-.694.551-1.245 1.245-1.245.694 0 1.255.551 1.255 1.245 0 .694-.561 1.255-1.255 1.255z" fill="#15141A"/><path fill-rule="evenodd" clip-rule="evenodd" d="M2 12C2 6.477 6.477 2 12 2s10 4.477 10 10-4.477 10-10 10S2 17.523 2 12zm18.25 0c0-4.549-3.701-8.25-8.25-8.25-4.549 0-8.25 3.701-8.25 8.25 0 4.549 3.701 8.25 8.25 8.25 4.549 0 8.25-3.701 8.25-8.25z" fill="#15141A"/></svg>

<svg width="24" height="24" viewBox="0 0 24 24" fill="none" xmlns="http://www.w3.org/2000/svg">
<path fill-rule="evenodd" clip-rule="evenodd" d="M8.10103 16.703L13.447 14.086C13.745 13.947 13.95 13.732 14.098 13.444L16.697 8.10699C16.995 7.47399 16.539 6.98899 15.887 7.30599L10.56 9.90399C10.271 10.044 10.075 10.239 9.91703 10.556L7.30003 15.902C7.00203 16.517 7.48603 17.001 8.10103 16.703ZM11.995 13.25C11.301 13.25 10.75 12.689 10.75 11.995C10.75 11.301 11.301 10.75 11.995 10.75C12.689 10.75 13.25 11.301 13.25 11.995C13.25 12.689 12.689 13.25 11.995 13.25Z" fill="#15141A"/>
<path fill-rule="evenodd" clip-rule="evenodd" d="M2 12C2 6.477 6.477 2 12 2C17.523 2 22 6.477 22 12C22 17.523 17.523 22 12 22C6.477 22 2 17.523 2 12ZM20.25 12C20.25 7.451 16.549 3.75 12 3.75C7.451 3.75 3.75 7.451 3.75 12C3.75 16.549 7.451 20.25 12 20.25C16.549 20.25 20.25 16.549 20.25 12Z" fill="#15141A"/>
</svg>
